X: 341
P: Longways for as many as will
[BG]: "Caledonian Country Dances" printed by John Walsh for John Johnson, London
M: C|
L: 1/8
K: G
V: 1
[BG]A |\
e2ee e2dc | d2dd d2cB | edcB c2BA | G6 :|[M:6/8][L:1/8]
|: d |\
ded def | g3 G2e | dBG A/B/cB | A3- A2d |\
ecA dBG | cBc A3 | z2z g3 | dcB cA2 | G3- G2 :|
V: 2 clef=bass middle=d
g2 |\
c'4- c'2a2 | b6 g2 | c2G2 d2D2 | G6 :|[M:6/8][L:1/8]
|: z |\
g3 g2f | edc BGc | G2B A2G | dd'c' bag |\
c'2f b2e | a2c d3 | z2z e'd'c' | bag d'd2 | G3- G2 :|

